<?xml version="1.0" encoding="UTF-8"?>
<map version="1.10" tiledversion="1.11.2" orientation="orthogonal" renderorder="right-down" width="120" height="28" tilewidth="32" tileheight="32" infinite="0" nextlayerid="2" nextobjectid="1">
 <tileset firstgid="1" source="../map_tileset.tsx"/>
 <tileset firstgid="61" source="../bushes.tsx"/>
 <tileset firstgid="63" name="pointers" tilewidth="32" tileheight="32" tilecount="1" columns="1">
  <image source="../img/Tiles/1 Tiles/pointer.png" width="32" height="42"/>
  <tile id="0">
   <objectgroup draworder="index" id="2">
    <object id="1" x="0.0640384" y="0.128077" width="33.1527" height="31.936"/>
    <object id="2" x="0.0640384" y="0.192115" width="32" height="32"/>
   </objectgroup>
  </tile>
 </tileset>
 <tileset firstgid="64" source="../fences.tsx"/>
 <tileset firstgid="65" source="../trees.tsx"/>
 <tileset firstgid="77" source="../willows.tsx"/>
 <tileset firstgid="89" source="../ridges.tsx"/>
 <tileset firstgid="92" source="../grass.tsx"/>
 <tileset firstgid="93" source="../downPointer.tsx"/>
 <layer id="1" name="Tile Layer 1" width="120" height="28">
  <data encoding="csv">
0,0,0,0,0,0,0,0,0,0,0,0,0,0,0,0,0,0,0,0,0,0,0,0,0,0,0,0,0,0,0,0,0,0,0,0,0,0,0,0,11,13,0,0,0,0,0,0,0,0,0,11,13,0,0,0,0,0,0,0,0,0,0,0,0,0,0,0,0,0,0,0,0,0,0,0,0,0,0,0,0,0,0,0,0,0,0,0,0,0,0,0,11,12,12,12,12,12,12,12,12,12,12,12,4,5,5,22,22,22,22,22,22,22,22,6,12,12,12,12,
0,0,0,0,0,0,0,0,0,0,0,0,0,0,0,0,0,0,0,0,0,0,0,0,0,0,0,0,0,0,0,0,0,0,0,0,0,0,0,0,11,13,0,0,0,0,0,0,0,0,0,11,13,0,0,0,0,0,0,0,0,0,0,0,0,0,0,0,0,0,0,0,0,0,0,0,0,0,0,0,0,0,0,0,0,0,0,0,0,0,0,0,11,12,12,12,12,12,12,12,12,12,12,12,14,15,15,0,0,0,0,0,0,0,0,21,22,6,12,12,
0,0,0,0,0,0,0,0,0,0,0,0,0,0,0,0,0,0,0,0,0,0,0,0,0,0,0,0,0,0,0,0,0,0,0,0,0,0,0,0,11,13,0,0,0,0,0,0,0,0,0,11,13,0,0,0,0,0,0,0,0,0,0,0,0,0,0,0,0,0,0,0,0,0,0,0,0,0,0,0,0,0,0,0,0,0,0,0,0,0,0,0,11,12,12,12,12,12,12,12,12,12,12,12,13,0,0,0,0,0,0,0,0,0,0,0,0,11,12,12,
0,0,0,0,0,0,0,0,0,0,0,0,0,0,0,0,0,0,0,0,0,0,0,0,0,0,0,0,0,0,0,15,15,15,0,0,0,0,0,93,11,13,0,0,0,0,0,0,0,0,0,11,13,0,0,0,0,0,0,0,0,0,0,0,0,0,0,0,0,0,0,0,0,0,0,0,0,0,0,0,0,0,0,0,0,0,0,0,0,0,0,0,11,12,12,12,12,12,12,12,12,12,12,12,13,0,0,0,0,0,0,0,0,0,0,0,0,11,12,12,
0,0,0,0,0,0,0,0,0,0,0,0,0,0,0,0,0,0,0,0,0,63,0,0,0,0,0,0,0,0,0,0,0,0,0,0,0,0,0,0,11,13,0,0,0,0,0,0,0,0,0,11,13,0,0,0,0,0,0,0,0,0,0,0,0,0,0,0,0,0,0,0,0,0,0,0,0,0,0,0,0,0,0,0,0,0,0,0,0,0,0,0,11,12,12,12,12,12,4,22,22,22,22,22,23,0,0,0,15,15,15,15,32,41,3,0,0,11,12,12,
0,0,0,0,0,0,0,0,0,0,0,0,0,0,0,0,0,0,0,0,15,15,15,0,0,0,0,0,0,0,0,0,0,0,0,0,0,0,0,93,11,13,0,0,0,0,0,0,0,0,0,15,15,0,0,0,0,0,0,0,0,0,0,0,0,0,0,0,0,0,0,0,0,0,0,0,0,0,0,0,0,0,0,0,0,0,0,0,0,0,0,0,11,12,12,12,12,4,23,0,0,0,0,0,0,0,0,0,0,0,0,0,0,11,13,0,0,11,12,12,
0,0,0,0,0,0,0,0,0,0,0,0,0,0,0,0,0,0,0,0,0,0,0,0,0,0,0,0,0,0,0,0,0,0,0,0,0,0,0,0,11,13,0,0,0,0,0,0,0,0,0,0,0,0,0,0,0,0,0,0,0,0,0,0,0,0,0,0,0,0,0,0,0,0,0,0,0,0,0,0,0,0,0,0,0,0,0,0,0,0,0,0,11,12,12,12,4,23,0,0,0,0,0,0,0,0,0,0,0,0,0,0,0,21,29,2,2,26,12,12,
0,0,0,0,0,0,0,0,0,0,15,15,15,0,0,0,0,0,0,0,0,0,0,0,0,0,0,0,0,0,0,0,0,0,0,0,0,0,0,93,11,13,0,0,0,0,0,0,0,0,0,0,0,0,0,0,0,0,0,0,0,0,0,0,0,0,0,89,90,91,0,0,0,0,0,0,0,0,0,0,0,0,0,0,0,0,0,0,0,0,0,0,11,12,12,4,23,0,0,0,0,0,0,15,15,15,15,15,0,0,0,0,0,0,21,6,12,12,12,12,
0,0,0,0,0,0,0,0,0,0,0,0,0,0,0,0,0,0,0,0,0,0,0,0,0,0,0,64,0,0,0,0,0,0,0,0,0,0,0,0,11,13,0,0,0,0,0,0,0,0,0,0,0,0,0,0,0,1,2,2,2,2,2,2,2,2,2,2,2,2,2,2,2,2,2,2,3,0,0,0,0,0,0,0,0,0,0,0,0,0,0,0,11,12,4,23,0,0,0,0,0,0,0,0,0,0,0,0,0,0,0,0,0,0,0,21,6,12,12,12,
0,0,0,0,0,0,0,0,0,0,0,0,0,0,0,0,0,0,0,0,0,0,0,0,1,2,2,2,3,0,0,0,0,0,0,1,2,3,0,0,11,13,0,0,0,0,0,0,0,0,0,0,0,0,0,0,0,21,22,22,22,22,6,12,4,22,22,22,22,22,22,22,22,22,22,6,13,0,0,0,0,0,0,0,0,0,0,0,0,0,0,0,11,4,23,0,0,0,0,0,0,0,0,0,0,0,0,0,0,0,0,0,0,0,0,0,21,22,22,22,
0,0,0,0,0,0,0,0,0,0,0,0,0,0,0,0,0,0,0,0,0,0,0,0,11,12,12,12,13,0,0,0,0,0,0,11,12,13,0,0,11,13,0,0,0,0,0,0,0,0,0,0,0,0,0,0,0,0,0,0,0,0,11,12,13,0,0,0,0,0,0,0,0,0,0,11,58,2,2,3,0,0,0,77,78,79,0,0,0,0,0,0,21,23,0,0,0,0,0,0,0,0,0,0,0,0,0,0,0,0,0,0,0,0,0,0,0,0,0,0,
0,0,0,0,0,0,0,0,0,0,0,0,0,0,0,1,2,2,2,3,0,0,0,0,11,12,12,12,13,0,0,0,0,0,0,11,12,13,0,0,11,13,0,0,0,0,0,0,0,0,0,0,0,0,0,0,0,0,0,0,0,0,21,22,23,0,0,0,0,0,0,0,0,0,0,11,12,12,12,13,0,0,0,80,81,82,0,0,0,0,0,0,0,0,32,33,33,33,33,34,0,0,0,0,0,0,0,0,0,0,32,33,33,33,33,33,34,0,0,0,
0,0,0,0,0,0,0,0,0,0,0,0,0,0,0,11,12,12,12,13,0,0,0,0,11,12,12,12,13,0,0,0,0,0,0,11,12,13,0,0,11,13,0,0,0,0,0,0,0,0,0,0,0,0,0,0,0,0,0,0,0,0,15,15,15,0,0,0,0,0,0,0,0,0,0,11,12,12,12,58,2,3,0,83,84,85,0,0,0,0,0,0,0,0,0,0,0,0,0,0,0,0,0,0,0,0,0,0,0,0,0,0,0,0,0,0,0,0,0,0,
0,0,0,0,0,0,0,0,0,0,0,0,0,0,0,11,12,12,12,13,0,0,0,0,11,12,12,12,13,0,0,0,0,0,0,11,12,13,0,0,11,13,0,65,66,67,0,0,32,33,33,34,0,0,0,0,0,0,0,0,0,0,0,0,0,0,0,0,0,0,0,0,0,0,0,11,12,12,12,12,12,13,0,86,87,88,0,0,0,0,0,0,0,0,0,0,0,0,0,0,0,0,0,0,0,0,0,0,0,0,0,0,0,0,0,0,0,0,0,0,
0,0,0,0,0,0,0,0,0,61,62,0,0,0,0,11,12,12,12,13,0,0,0,0,11,12,12,12,13,0,0,0,0,0,0,11,12,13,0,0,11,13,0,68,69,70,0,0,0,0,0,0,0,0,0,0,0,0,0,0,0,0,0,0,0,0,0,0,0,0,0,0,0,0,0,11,12,12,12,12,12,24,2,2,2,2,2,2,2,2,2,2,2,2,2,2,2,2,2,2,2,2,2,2,2,2,2,2,2,2,2,2,2,2,2,2,2,2,2,2,
0,0,0,0,0,0,1,2,2,2,3,0,0,0,0,11,12,12,12,13,0,0,0,0,11,12,12,12,13,0,0,0,0,0,0,11,12,13,0,0,11,13,0,71,72,73,0,0,0,0,0,0,32,33,33,34,0,0,0,0,0,0,0,0,0,0,0,0,0,0,0,0,0,0,0,11,12,12,12,12,12,12,12,12,12,12,12,12,12,12,12,12,12,12,12,12,12,12,12,12,12,12,12,12,12,12,12,12,12,12,12,12,12,12,12,12,12,12,12,12,
0,0,0,0,0,0,11,12,12,12,13,0,0,0,0,11,12,12,12,13,0,0,0,0,11,12,12,12,13,0,0,0,0,0,0,11,12,13,0,0,11,13,0,74,75,76,0,0,0,0,0,0,0,0,0,0,0,0,0,0,0,0,0,0,0,0,0,0,0,0,0,0,0,0,0,11,12,12,12,12,12,12,12,12,12,12,12,12,12,12,12,12,12,12,12,12,12,12,12,12,12,12,12,12,12,12,12,12,12,12,12,12,12,12,12,12,12,12,12,12,
0,47,2,2,3,0,11,12,12,12,13,0,0,0,0,11,12,12,12,13,0,0,0,0,11,12,12,12,13,0,0,0,0,0,0,11,12,13,0,0,11,58,2,2,2,2,2,2,2,2,2,2,2,2,2,2,2,2,2,2,3,0,0,0,0,0,0,0,0,0,0,0,0,0,0,11,12,12,12,12,12,12,12,12,12,12,12,12,12,12,12,12,12,12,12,12,12,12,12,12,12,12,12,12,12,12,12,12,12,12,12,12,12,12,12,12,12,12,12,12,
47,57,12,12,13,0,11,12,12,12,13,0,0,0,0,11,12,12,12,13,0,0,0,0,11,12,12,12,13,0,0,0,0,0,0,11,12,13,0,0,11,4,22,22,22,22,22,22,22,22,22,22,22,22,22,22,22,22,22,22,23,0,0,0,0,0,0,0,0,0,0,0,0,0,0,11,12,12,12,12,12,12,12,12,12,12,12,12,12,12,12,12,12,12,12,12,12,12,12,12,12,12,12,12,12,12,12,12,12,12,12,12,12,12,12,12,12,12,12,12,
11,12,12,12,13,0,11,12,12,12,13,0,0,0,0,11,12,12,12,13,0,0,0,0,11,12,12,12,13,0,0,0,0,0,0,11,12,13,0,0,11,13,0,0,0,0,0,0,0,0,0,0,0,0,0,0,0,0,0,0,0,0,0,0,0,0,0,0,0,0,0,0,0,0,0,11,12,12,12,12,12,12,12,12,12,12,12,12,12,12,12,12,12,12,12,12,12,12,12,12,12,12,12,12,12,12,12,12,12,12,12,12,12,12,12,12,12,12,12,12,
11,12,12,12,13,0,11,12,12,12,13,0,0,0,0,11,12,12,12,13,0,0,0,0,11,12,12,12,13,0,0,0,0,0,0,11,12,13,0,0,11,13,0,0,0,0,0,0,0,0,0,0,0,0,0,0,0,0,0,0,0,0,0,0,32,33,33,34,0,0,0,0,0,0,0,11,12,12,12,12,12,12,12,12,12,12,12,12,12,12,12,12,12,12,12,12,12,12,12,12,12,12,12,12,12,12,12,12,12,12,12,12,12,12,12,12,12,12,12,12,
11,12,12,12,13,0,11,12,12,12,13,0,0,0,0,11,12,12,12,13,0,0,0,0,11,12,12,12,13,0,0,0,0,0,0,11,12,13,0,0,11,13,0,0,0,0,0,0,0,0,0,0,0,0,0,0,0,0,0,0,0,0,0,0,0,0,0,0,0,0,0,0,0,0,0,11,12,12,12,12,12,12,12,12,12,12,12,12,12,12,12,12,12,12,12,12,12,12,12,12,12,12,12,12,12,12,12,12,12,12,12,12,12,12,12,12,12,12,12,12,
11,12,12,12,13,0,11,12,12,12,13,0,0,0,0,11,12,12,12,13,0,0,0,0,11,12,12,12,13,0,0,0,0,0,0,11,12,13,0,0,21,23,0,0,0,0,0,0,0,0,0,0,0,0,0,0,0,0,0,0,0,0,0,0,0,0,0,0,32,33,33,34,0,0,0,11,12,12,12,12,12,12,12,12,12,12,12,12,12,12,12,12,12,12,12,12,12,12,12,12,12,12,12,12,12,12,12,12,12,12,12,12,12,12,12,12,12,12,12,12,
11,12,12,12,13,0,11,12,12,12,13,0,0,0,0,11,12,12,12,13,0,0,0,0,11,12,12,12,13,0,0,0,0,0,0,11,12,13,0,0,0,0,0,0,0,0,0,0,0,0,0,0,0,0,0,0,0,0,0,92,0,0,0,0,0,0,0,0,0,0,0,0,0,0,0,11,12,12,12,12,12,12,12,12,12,12,12,12,12,12,12,12,12,12,12,12,12,12,12,12,12,12,12,12,12,12,12,12,12,12,12,12,12,12,12,12,12,12,12,12,
11,12,12,12,13,0,11,12,12,12,13,0,0,0,0,11,12,12,12,13,0,0,0,0,11,12,12,12,13,0,0,0,0,0,0,11,12,13,0,0,0,0,0,0,47,2,2,2,2,2,2,2,2,2,2,2,2,2,2,2,2,2,2,2,2,2,2,2,2,2,2,2,2,2,2,57,12,12,12,12,12,12,12,12,12,12,12,12,12,12,12,12,12,12,12,12,12,12,12,12,12,12,12,12,12,12,12,12,12,12,12,12,12,12,12,12,12,12,12,12,
11,12,12,12,13,0,11,12,12,12,13,0,0,0,0,11,12,12,12,13,0,0,0,0,11,12,12,12,13,0,0,0,0,0,0,11,12,13,0,0,0,0,0,47,57,12,12,12,12,12,12,12,12,12,12,12,12,12,12,12,12,12,12,12,12,12,12,12,12,12,12,12,12,12,12,12,12,12,12,12,12,12,12,12,12,12,12,12,12,12,12,12,12,12,12,12,12,12,12,12,12,12,12,12,12,12,12,12,12,12,12,12,12,12,12,12,12,12,12,12,
11,12,12,12,13,0,11,12,12,12,13,0,0,0,0,11,12,12,12,13,0,0,0,0,11,12,12,12,13,0,0,0,0,0,0,11,12,13,0,0,0,64,47,57,12,12,12,12,12,12,12,12,12,12,12,12,12,12,12,12,12,12,12,12,12,12,12,12,12,12,12,12,12,12,12,12,12,12,12,12,12,12,12,12,12,12,12,12,12,12,12,12,12,12,12,12,12,12,12,12,12,12,12,12,12,12,12,12,12,12,12,12,12,12,12,12,12,12,12,12,
11,12,12,12,13,0,11,12,12,12,13,0,0,0,0,11,12,12,12,13,0,0,0,0,11,12,12,12,13,0,0,0,0,0,0,11,12,24,2,2,2,2,57,12,12,12,12,12,12,12,12,12,12,12,12,12,12,12,12,12,12,12,12,12,12,12,12,12,12,12,12,12,12,12,12,12,12,12,12,12,12,12,12,12,12,12,12,12,12,12,12,12,12,12,12,12,12,12,12,12,12,12,12,12,12,12,12,12,12,12,12,12,12,12,12,12,12,12,12,12
</data>
 </layer>
</map>
